front/src/assets/images/esc.svg

<svg width="32" height="23" viewBox="0 0 32 23" fill="none" xmlns="http://www.w3.org/2000/svg">
<rect x="1" y="1" width="30" height="21" rx="2" fill="white" stroke="#7C82FF"/>
<path d="M8.63425 15.1591C7.89845 15.1591 7.26374 14.9967 6.73013 14.6719C6.19982 14.3438 5.7905 13.8864 5.50214 13.2997C5.21711 12.7098 5.07459 12.0237 5.07459 11.2415C5.07459 10.4593 5.21711 9.76989 5.50214 9.1733C5.7905 8.57339 6.19154 8.10606 6.70527 7.77131C7.22231 7.43324 7.82553 7.2642 8.51493 7.2642C8.91266 7.2642 9.30541 7.33049 9.69319 7.46307C10.081 7.59564 10.434 7.81108 10.7521 8.10938C11.0703 8.40436 11.3239 8.79545 11.5128 9.28267C11.7017 9.76989 11.7962 10.3698 11.7962 11.0824V11.5795H5.90981V10.5653H10.603C10.603 10.1345 10.5168 9.75 10.3445 9.41193C10.1754 9.07386 9.93349 8.80705 9.61862 8.61151C9.30707 8.41596 8.93917 8.31818 8.51493 8.31818C8.0476 8.31818 7.64324 8.43419 7.30186 8.66619C6.96379 8.89489 6.70361 9.19318 6.52132 9.56108C6.33903 9.92898 6.24788 10.3234 6.24788 10.7443V11.4205C6.24788 11.9972 6.34731 12.486 6.54618 12.8871C6.74836 13.2848 7.02842 13.5881 7.38638 13.7969C7.74433 14.0024 8.16029 14.1051 8.63425 14.1051C8.94248 14.1051 9.22089 14.062 9.46947 13.9759C9.72137 13.8864 9.93846 13.7538 10.1208 13.5781C10.303 13.3991 10.4439 13.1771 10.5433 12.9119L11.6769 13.2301C11.5575 13.6146 11.357 13.9527 11.0753 14.2443C10.7936 14.5327 10.4456 14.758 10.0313 14.9205C9.61696 15.0795 9.15129 15.1591 8.63425 15.1591ZM18.9901 9.07386L17.9361 9.37216C17.8698 9.1965 17.772 9.0258 17.6428 8.86009C17.5168 8.69105 17.3445 8.55185 17.1257 8.44247C16.907 8.3331 16.6269 8.27841 16.2855 8.27841C15.8182 8.27841 15.4288 8.38613 15.1172 8.60156C14.809 8.81368 14.6548 9.08381 14.6548 9.41193C14.6548 9.7036 14.7609 9.93395 14.973 10.103C15.1851 10.272 15.5166 10.4129 15.9673 10.5256L17.1009 10.804C17.7836 10.9697 18.2924 11.2232 18.6271 11.5646C18.9619 11.9027 19.1293 12.3385 19.1293 12.8722C19.1293 13.3097 19.0033 13.7008 18.7514 14.0455C18.5029 14.3902 18.1548 14.6619 17.7074 14.8608C17.26 15.0597 16.7396 15.1591 16.1463 15.1591C15.3674 15.1591 14.7228 14.9901 14.2124 14.652C13.702 14.3139 13.3788 13.8201 13.2429 13.1705L14.3565 12.892C14.4626 13.303 14.6631 13.6113 14.9581 13.8168C15.2564 14.0223 15.6458 14.125 16.1264 14.125C16.6733 14.125 17.1075 14.009 17.429 13.777C17.7538 13.5417 17.9162 13.2599 17.9162 12.9318C17.9162 12.6667 17.8234 12.4446 17.6378 12.2656C17.4522 12.0833 17.1672 11.9474 16.7827 11.858L15.51 11.5597C14.8106 11.3939 14.2969 11.1371 13.9688 10.7891C13.644 10.4377 13.4815 9.99858 13.4815 9.47159C13.4815 9.04072 13.6025 8.65956 13.8445 8.32812C14.0897 7.99669 14.4228 7.73651 14.8438 7.54758C15.268 7.35866 15.7486 7.2642 16.2855 7.2642C17.0412 7.2642 17.6345 7.42992 18.0654 7.76136C18.4995 8.0928 18.8078 8.5303 18.9901 9.07386ZM23.9977 15.1591C23.2818 15.1591 22.6653 14.9901 22.1483 14.652C21.6312 14.3139 21.2335 13.8482 20.9551 13.255C20.6767 12.6617 20.5375 11.9839 20.5375 11.2216C20.5375 10.446 20.68 9.7616 20.965 9.16832C21.2534 8.57173 21.6544 8.10606 22.1682 7.77131C22.6852 7.43324 23.2884 7.2642 23.9778 7.2642C24.5148 7.2642 24.9987 7.36364 25.4295 7.5625C25.8604 7.76136 26.2134 8.03977 26.4885 8.39773C26.7636 8.75568 26.9343 9.1733 27.0005 9.65057H25.8273C25.7378 9.30256 25.5389 8.99432 25.2307 8.72585C24.9257 8.45407 24.5148 8.31818 23.9977 8.31818C23.5403 8.31818 23.1393 8.4375 22.7946 8.67614C22.4532 8.91146 22.1864 9.24455 21.9942 9.67543C21.8052 10.103 21.7108 10.6051 21.7108 11.1818C21.7108 11.7718 21.8036 12.2855 21.9892 12.723C22.1781 13.1605 22.4433 13.5002 22.7846 13.7422C23.1293 13.9841 23.5337 14.1051 23.9977 14.1051C24.3026 14.1051 24.5794 14.0521 24.828 13.946C25.0765 13.84 25.287 13.6875 25.4594 13.4886C25.6317 13.2898 25.7543 13.0511 25.8273 12.7727H27.0005C26.9343 13.2235 26.7702 13.6295 26.5084 13.9908C26.2498 14.3487 25.9068 14.6338 25.4792 14.8459C25.055 15.0547 24.5612 15.1591 23.9977 15.1591Z" fill="#282828"/>
</svg>

<svg width="32" height="23" fill="none" xmlns="http://www.w3.org/2000/svg"><rect x="1" y="1" width="30" height="21" rx="2" fill="#fff" stroke="#7C82FF"/><path d="M8.634 15.16c-.736 0-1.37-.163-1.904-.488A3.27 3.27 0 0 1 5.502 13.3c-.285-.59-.427-1.276-.427-2.059 0-.782.142-1.471.427-2.068.288-.6.69-1.067 1.203-1.402.517-.338 1.12-.507 1.81-.507.398 0 .79.066 1.178.2.388.132.741.347 1.06.645.317.295.57.686.76 1.174.189.487.283 1.087.283 1.8v.496H5.91v-1.014h4.693c0-.43-.086-.815-.258-1.153a1.948 1.948 0 0 0-.726-.8c-.312-.196-.68-.294-1.104-.294-.467 0-.872.116-1.213.348a2.29 2.29 0 0 0-.78.895 2.629 2.629 0 0 0-.274 1.183v.677c0 .576.1 1.065.298 1.466.202.398.482.701.84.91.358.205.774.308 1.248.308.308 0 .587-.043.835-.13.252-.089.47-.221.652-.397.182-.179.323-.4.422-.666l1.134.318c-.12.385-.32.723-.602 1.014-.281.289-.63.514-1.044.677-.414.159-.88.238-1.397.238ZM18.99 9.073l-1.054.298a1.96 1.96 0 0 0-.293-.512 1.424 1.424 0 0 0-.517-.418c-.219-.109-.5-.164-.84-.164-.468 0-.857.108-1.169.324-.308.212-.462.482-.462.81 0 .292.106.522.318.691.212.169.544.31.994.423l1.134.278c.683.166 1.191.42 1.526.76.335.339.502.774.502 1.308 0 .438-.126.829-.378 1.174-.248.344-.596.616-1.044.815-.447.199-.967.298-1.56.298-.78 0-1.424-.169-1.935-.507-.51-.338-.833-.832-.97-1.481l1.114-.279c.107.411.307.72.602.925.298.205.688.308 1.168.308.547 0 .982-.116 1.303-.348.325-.235.487-.517.487-.845a.888.888 0 0 0-.278-.666c-.186-.183-.47-.319-.855-.408l-1.273-.298c-.7-.166-1.213-.423-1.541-.77-.325-.352-.487-.791-.487-1.318 0-.431.12-.812.363-1.144a2.47 2.47 0 0 1 .999-.78 3.508 3.508 0 0 1 1.441-.284c.756 0 1.35.166 1.78.497.434.332.743.77.925 1.313Zm5.008 6.085c-.716 0-1.333-.169-1.85-.507a3.305 3.305 0 0 1-1.193-1.397c-.278-.593-.417-1.271-.417-2.033 0-.776.142-1.46.427-2.054a3.38 3.38 0 0 1 1.203-1.397c.517-.338 1.12-.507 1.81-.507.537 0 1.02.1 1.451.298.431.2.784.478 1.06.836.275.358.445.775.511 1.253h-1.173c-.09-.348-.288-.657-.596-.925-.305-.272-.716-.408-1.233-.408-.458 0-.859.12-1.203.358-.342.235-.609.569-.8 1-.19.427-.284.93-.284 1.506 0 .59.093 1.104.278 1.541.19.438.454.777.796 1.02.344.241.749.362 1.213.362.305 0 .581-.053.83-.159.248-.106.459-.258.631-.457.173-.2.295-.438.368-.716H27c-.066.45-.23.857-.492 1.218a2.751 2.751 0 0 1-1.029.855c-.424.209-.918.313-1.481.313Z" fill="#282828"/></svg>
